icons/1_Primary/Clover.svg

<svg width="1024" height="1024" fill="none" xmlns="http://www.w3.org/2000/svg"><g clip-path="url(#a)"><path d="M512 1024c282.77 0 512-229.23 512-512S794.77 0 512 0 0 229.23 0 512s229.23 512 512 512Z" fill="#71A372"/><path d="M363.023 256.965c-2.502.367-13.173 2.281-15.454 2.722-8.021 1.693-21.782 6.991-29.951 11.554-10.818 6.034-17.367 11.038-27.891 21.635-12.51 12.584-21.635 27.229-27.375 43.787-4.931 14.35-6.402 23.695-6.329 40.842.074 19.501 3.238 33.336 11.701 50.777 14.939 30.834 41.578 53.279 74.767 62.92 15.602 4.562 16.853 4.636 86.395 4.709 34.808.074 63.95 0 64.759-.147 1.472-.221 1.472-.589 1.399-64.391 0-35.323-.295-66.01-.589-68.218-1.03-7.874-3.459-18.766-5.74-25.315-11.995-35.47-40.622-63.803-76.313-75.503-7.065-2.282-7.285-2.355-14.056-3.606-2.207-.442-5.004-.957-6.255-1.251-2.428-.442-26.198-.883-29.068-.515Zm280.157.662c-.073.073-2.649.294-5.666.589-3.017.22-6.182.588-6.991.735-.81.148-2.944.516-4.784.884-1.839.294-3.458.588-3.679.662-22.739 5.887-40.18 15.159-55.34 29.436-21.12 20.09-34.514 47.024-37.089 75.062-.442 5.225-.883 127.09-.442 129.15.221 1.03 7.065 1.178 65.127 1.104 63.656-.147 65.054-.147 74.326-1.766 39.224-6.844 71.603-31.57 88.529-67.409 2.723-5.887 7.065-18.25 8.021-23.254 4.489-22.151 3.606-42.829-2.649-62.478-5.74-17.882-16.337-35.029-30.025-48.422-22.077-21.709-50.629-33.557-82.494-34.293-3.679-.074-6.77-.074-6.844 0ZM367.954 529.91c-.074.073-2.282.294-4.931.515-21.415 1.987-42.388 10.229-60.344 23.77-24.947 18.765-42.24 48.643-46.214 79.624-.957 7.948-.368 31.864.956 35.617.148.516.442 1.767.663 2.797 2.355 13.393 9.419 30.098 18.103 42.829 18.618 27.523 49.526 46.73 82.053 51.072 1.619.221 3.753.515 4.783.736 2.355.368 21.194.441 23.181 0 .809-.148 3.459-.515 5.887-.736 5.667-.663 16.852-3.459 23.917-5.961 9.272-3.312 27.228-13.025 31.349-16.926.442-.368 2.208-1.913 3.974-3.311 18.913-15.16 35.544-41.652 40.107-63.656.22-1.251.956-4.709 1.619-7.727 1.03-4.783 1.251-14.57 1.471-72.191l.295-66.673-63.361.074c-34.808 0-63.435.073-63.508.147Zm93.091 34.293c.515 1.692.074 89.117-.442 93.606-.956 7.286-2.575 14.497-4.268 18.692a141.439 141.439 0 0 0-1.324 3.459c-3.091 8.316-9.862 18.912-16.632 26.124-16.558 17.588-37.457 27.081-60.638 27.597-19.207.441-34.955-4.121-50.777-14.718-29.804-19.87-43.713-55.782-35.25-90.884 1.619-6.55 2.282-8.242 5.961-16.19 9.42-20.384 29.215-37.531 51.219-44.448 5.887-1.84 7.138-2.134 14.129-3.385 1.84-.295 24.579-.589 50.483-.663 37.457-.073 47.318.074 47.539.81Zm68.144-33.704c-.515 1.619-.073 123.189.442 128.856 4.489 49.084 39.591 90.81 87.351 103.688 3.827 1.03 7.948 2.06 9.125 2.208 4.636.809 7.58 1.251 10.376 1.545 3.68.442 21.415.515 23.844.074 1.03-.221 3.311-.515 5.151-.736 15.969-2.061 33.557-8.61 47.686-17.662 24.138-15.454 42.02-39.223 50.115-66.452 1.178-3.973 2.281-8.536 2.576-10.155.221-1.619.588-3.753.809-4.783 1.766-8.316 1.766-28.627 0-37.605-.221-.957-.588-2.796-.809-3.974-1.693-9.419-5.74-21.046-11.112-31.275-16.926-32.895-48.423-55.929-85.291-62.626-8.537-1.545-10.671-1.619-74.4-1.766-46.729-.073-65.716.074-65.863.663Z" fill="#fff"/></g><defs><clipPath id="a"><path fill="#fff" d="M0 0h1024v1024H0z"/></clipPath></defs></svg>

<svg width="1024" height="1024" viewBox="0 0 1024 1024" fill="none" xmlns="http://www.w3.org/2000/svg">
<g clip-path="url(#clip0_2_1824)">
<path d="M512 1024C794.77 1024 1024 794.77 1024 512C1024 229.23 794.77 0 512 0C229.23 0 0 229.23 0 512C0 794.77 229.23 1024 512 1024Z" fill="#71A372"/>
<path d="M363.023 256.965C360.521 257.332 349.85 259.246 347.569 259.687C339.548 261.38 325.787 266.678 317.618 271.241C306.8 277.275 300.251 282.279 289.727 292.876C277.217 305.46 268.092 320.105 262.352 336.663C257.421 351.013 255.95 360.358 256.023 377.505C256.097 397.006 259.261 410.841 267.724 428.282C282.663 459.116 309.302 481.561 342.491 491.202C358.093 495.764 359.344 495.838 428.886 495.911C463.694 495.985 492.836 495.911 493.645 495.764C495.117 495.543 495.117 495.175 495.044 431.373C495.044 396.05 494.749 365.363 494.455 363.155C493.425 355.281 490.996 344.389 488.715 337.84C476.72 302.37 448.093 274.037 412.402 262.337C405.337 260.055 405.117 259.982 398.346 258.731C396.139 258.289 393.342 257.774 392.091 257.48C389.663 257.038 365.893 256.597 363.023 256.965ZM643.18 257.627C643.107 257.7 640.531 257.921 637.514 258.216C634.497 258.436 631.332 258.804 630.523 258.951C629.713 259.099 627.579 259.467 625.739 259.835C623.9 260.129 622.281 260.423 622.06 260.497C599.321 266.384 581.88 275.656 566.72 289.933C545.6 310.023 532.206 336.957 529.631 364.995C529.189 370.22 528.748 492.085 529.189 494.145C529.41 495.175 536.254 495.323 594.316 495.249C657.972 495.102 659.37 495.102 668.642 493.483C707.866 486.639 740.245 461.913 757.171 426.074C759.894 420.187 764.236 407.824 765.192 402.82C769.681 380.669 768.798 359.991 762.543 340.342C756.803 322.46 746.206 305.313 732.518 291.92C710.441 270.211 681.889 258.363 650.024 257.627C646.345 257.553 643.254 257.553 643.18 257.627ZM367.954 529.91C367.88 529.983 365.672 530.204 363.023 530.425C341.608 532.412 320.635 540.654 302.679 554.195C277.732 572.96 260.439 602.838 256.465 633.819C255.508 641.767 256.097 665.683 257.421 669.436C257.569 669.952 257.863 671.203 258.084 672.233C260.439 685.626 267.503 702.331 276.187 715.062C294.805 742.585 325.713 761.792 358.24 766.134C359.859 766.355 361.993 766.649 363.023 766.87C365.378 767.238 384.217 767.311 386.204 766.87C387.013 766.722 389.663 766.355 392.091 766.134C397.758 765.471 408.943 762.675 416.008 760.173C425.28 756.861 443.236 747.148 447.357 743.247C447.799 742.879 449.565 741.334 451.331 739.936C470.244 724.776 486.875 698.284 491.438 676.28C491.658 675.029 492.394 671.571 493.057 668.553C494.087 663.77 494.308 653.983 494.528 596.362L494.823 529.689L431.462 529.763C396.654 529.763 368.027 529.836 367.954 529.91ZM461.045 564.203C461.56 565.895 461.119 653.32 460.603 657.809C459.647 665.095 458.028 672.306 456.335 676.501C455.894 677.605 455.305 679.15 455.011 679.96C451.92 688.276 445.149 698.872 438.379 706.084C421.821 723.672 400.922 733.165 377.741 733.681C358.534 734.122 342.786 729.56 326.964 718.963C297.16 699.093 283.251 663.181 291.714 628.079C293.333 621.529 293.996 619.837 297.675 611.889C307.095 591.505 326.89 574.358 348.894 567.441C354.781 565.601 356.032 565.307 363.023 564.056C364.863 563.761 387.602 563.467 413.506 563.393C450.963 563.32 460.824 563.467 461.045 564.203ZM529.189 530.499C528.674 532.118 529.116 653.688 529.631 659.355C534.12 708.439 569.222 750.165 616.982 763.043C620.809 764.073 624.93 765.103 626.107 765.251C630.743 766.06 633.687 766.502 636.483 766.796C640.163 767.238 657.898 767.311 660.327 766.87C661.357 766.649 663.638 766.355 665.478 766.134C681.447 764.073 699.035 757.524 713.164 748.472C737.302 733.018 755.184 709.249 763.279 682.02C764.457 678.047 765.56 673.484 765.855 671.865C766.076 670.246 766.443 668.112 766.664 667.082C768.43 658.766 768.43 638.455 766.664 629.477C766.443 628.52 766.076 626.681 765.855 625.503C764.162 616.084 760.115 604.457 754.743 594.228C737.817 561.333 706.32 538.299 669.452 531.602C660.915 530.057 658.781 529.983 595.052 529.836C548.323 529.763 529.336 529.91 529.189 530.499Z" fill="white"/>
</g>
<defs>
<clipPath id="clip0_2_1824">
<rect width="1024" height="1024" fill="white"/>
</clipPath>
</defs>
</svg>
